assets/icons/icon_keyboard_up.svg

<svg width="48" height="48" viewBox="0 0 48 48" fill="none" xmlns="http://www.w3.org/2000/svg">
<g clip-path="url(#clip0_2188_3217)">
<path d="M34 15H14C9.58 15 6 18.58 6 23V35C6 39.42 9.58 43 14 43H34C38.42 43 42 39.42 42 35V23C42 18.58 38.42 15 34 15ZM39 35C39 37.76 36.76 40 34 40H14C11.24 40 9 37.76 9 35V23C9 20.24 11.24 18 14 18H34C36.76 18 39 20.24 39 23V35Z" fill="black"/>
<path d="M15 27C15.8284 27 16.5 26.3284 16.5 25.5C16.5 24.6716 15.8284 24 15 24C14.1716 24 13.5 24.6716 13.5 25.5C13.5 26.3284 14.1716 27 15 27Z" fill="black"/>
<path d="M33 27C33.8284 27 34.5 26.3284 34.5 25.5C34.5 24.6716 33.8284 24 33 24C32.1716 24 31.5 24.6716 31.5 25.5C31.5 26.3284 32.1716 27 33 27Z" fill="black"/>
<path d="M27 27C27.8284 27 28.5 26.3284 28.5 25.5C28.5 24.6716 27.8284 24 27 24C26.1716 24 25.5 24.6716 25.5 25.5C25.5 26.3284 26.1716 27 27 27Z" fill="black"/>
<path d="M21 27C21.8284 27 22.5 26.3284 22.5 25.5C22.5 24.6716 21.8284 24 21 24C20.1716 24 19.5 24.6716 19.5 25.5C19.5 26.3284 20.1716 27 21 27Z" fill="black"/>
<path d="M18.9998 13.5001C19.3798 13.5001 19.7698 13.3501 20.0598 13.0601L24.2998 8.82006L28.5398 13.0601C29.1298 13.6501 30.0798 13.6501 30.6598 13.0601C31.2398 12.4701 31.2498 11.5201 30.6598 10.9401L25.8698 6.15006C24.9998 5.28006 23.5798 5.28006 22.7198 6.15006L17.9298 10.9401C17.3398 11.5301 17.3398 12.4801 17.9298 13.0601C18.2198 13.3501 18.6098 13.5001 18.9898 13.5001H18.9998Z" fill="black"/>
<path d="M30.5 31H17.5C16.67 31 16 31.67 16 32.5C16 33.33 16.67 34 17.5 34H30.5C31.33 34 32 33.33 32 32.5C32 31.67 31.33 31 30.5 31Z" fill="black"/>
</g>
<defs>
<clipPath id="clip0_2188_3217">
<rect width="48" height="48" fill="white"/>
</clipPath>
</defs>
</svg>

<?xml version="1.0" encoding="UTF-8"?>
<svg xmlns="http://www.w3.org/2000/svg" viewBox="0 0 48 48">
  <defs>
    <style>
      .cls-1 {
        fill: none;
        opacity: .2;
      }
    </style>
  </defs>
  <g id="guid">
    <rect class="cls-1" width="48" height="48"/>
    <rect class="cls-1" x="4" y="4" width="40" height="40"/>
  </g>
  <g id="Layer_2" data-name="Layer 2">
    <g>
      <path d="M34,15H14c-4.42,0-8,3.58-8,8v12c0,4.42,3.58,8,8,8h20c4.42,0,8-3.58,8-8v-12c0-4.42-3.58-8-8-8ZM39,35c0,2.76-2.24,5-5,5H14c-2.76,0-5-2.24-5-5v-12c0-2.76,2.24-5,5-5h20c2.76,0,5,2.24,5,5v12Z"/>
      <circle cx="15" cy="25.5" r="1.5"/>
      <circle cx="33" cy="25.5" r="1.5"/>
      <circle cx="27" cy="25.5" r="1.5"/>
      <circle cx="21" cy="25.5" r="1.5"/>
      <path d="M19,13.5c.38,0,.77-.15,1.06-.44l4.24-4.24,4.24,4.24c.59.59,1.54.59,2.12,0s.59-1.54,0-2.12l-4.79-4.79c-.87-.87-2.29-.87-3.15,0l-4.79,4.79c-.59.59-.59,1.54,0,2.12.29.29.68.44,1.06.44Z"/>
      <path d="M30.5,31h-13c-.83,0-1.5.67-1.5,1.5s.67,1.5,1.5,1.5h13c.83,0,1.5-.67,1.5-1.5s-.67-1.5-1.5-1.5Z"/>
    </g>
  </g>
</svg>
